fencing.svg

<svg fill="currentColor" viewBox="0 0 24 24"><path d="m4.5 17.42 1.08 1.08-2.3 2.28c-.28.29-.78.29-1.06 0s-.29-.78 0-1.06zm13.79-12V4L12 10.29 5.71 4v1.42L11.29 11 7.5 14.81c-1.18-.84-2.82-.74-3.87.31l4.25 4.25c1.05-1.05 1.15-2.69.32-3.87zm3.49 14.3-2.28-2.3-1.08 1.08 2.3 2.28c.28.29.78.29 1.06 0s.29-.78 0-1.06m-5.28-4.91-3.08-3.1-.71.71 3.1 3.08c-.84 1.18-.74 2.82.31 3.87l4.25-4.25c-1.05-1.05-2.69-1.15-3.87-.31"/></svg>

<svg  viewBox="0 0 24 24" fill="currentColor"><path  d="M4.5 17.42L5.58 18.5L3.28 20.78C3 21.07 2.5 21.07 2.22 20.78S1.93 20 2.22 19.72L4.5 17.42M18.29 5.42L18.29 4L12 10.29L5.71 4L5.71 5.42L11.29 11L7.5 14.81C6.32 13.97 4.68 14.07 3.63 15.12L7.88 19.37C8.93 18.32 9.03 16.68 8.2 15.5L18.29 5.42M21.78 19.72L19.5 17.42L18.42 18.5L20.72 20.78C21 21.07 21.5 21.07 21.78 20.78S22.07 20 21.78 19.72M16.5 14.81L13.42 11.71L12.71 12.42L15.81 15.5C14.97 16.68 15.07 18.32 16.12 19.37L20.37 15.12C19.32 14.07 17.68 13.97 16.5 14.81Z"/></svg>
